X:1
T:The Army of the Lord
T:William H. Price, 1899
T:The Army of the Lord
T:Public Domain
T:Public Domain
C:William H. Price, 1899
Z:Public Domain
%%score ( 1 2 ) ( 3 4 )
L:1/8
M:4/4
K:Bb
V:1 treble 
V:2 treble 
V:3 bass 
V:4 bass 
V:1
 [B,D]>[CE] | [DF]>[^C=E] [DF]>[_EG] [DF]2 [FB]>[FA] | [EG]>[E^F] [EG]>[EA] [EG]2 [=Ec]>[EB] | %3
w: 1.~Come and|join our hap- py throng, Lift your|voice in joy- ful song, As Je-|
w: 2.~See! our|cap- tain leads us on, He has|need of ev- ery one, For His|
w: 3.~Then no|long- er halt- ing stand, Come and|join our youth- ful band, As we|
 [EA]2 [DB]2 [Ec]2 [Fd]2 | (B4 F2) [B,D]>[CE] | [DF]>[^C=E] [DF]>[_EG] [DF]2 [FB]>[FA] | %6
w: ho- vah’s name we|praise; * ’Neath the|ner of the right We are press-|
w: cause must ne- ver|fail; * And tho’|tan bars the way, Yet we press|
w: march the foe to|meet; * For we’ll|a vic- tor’s crown, When we lay|
 [EG]>[E^F] [EG]>[EA] [EG]2 [=Ec]>[EB] | [FA]2 F2 [=EG]2 [_EA]2 | [DB]6 z2 || %9
w: ing to the fight, And our an-|them loud we raise.||
w: to vic- to- ry, For Je- ho-|vah must pre- vail.|ry|
w: our ar- mor down, And our tro-|phies at His feet.||
"^Refrain" [Fd]2 [DB]>[Ec] [Fd]2 [DF]2 | [Fd]>[Ec] [DB]>[Ec] [Fd]2 [DF]2 | [Ff]2 d2 B2 F2 | %12
w: |||
w: and hon- or To the|Lamb for- ev- er! Glo- ry|in the high- est,|
w: |||
 [FB]2 [Fd]2 [Fc]2 [B,D]>[CE] | [DF]>[^C=E] [DF]>[_EG] [DF]2 [FB]>[FB] | %14
w: ||
w: lu- jah to His name!|Let our voic- es loud pro- claim|
w: ||
 [Ec]>[G=B] [Gc]>[Gd] [Ge]2 [Gd]>[Gc] | [Ff]>[Fd] [DB]>[=Ec] [Fd]2 [_Ec]2 | [DB]6 |] %17
w: |||
w: Hal- le- lu- jah to our Sav-|ior King! * * * *||
w: |||
V:2
 x2 | x8 | x8 | x8 | D6 x2 | x8 | x8 | x2 F2 x4 | x8 || x8 | x8 | x2 d2 B2 F2 | x8 | x8 | x8 | x8 | %16
w: ||||ban-||||||||||||
w: ||||Sa-|||Glo-||||sing Hal- le-|||||
w: ||||wear||||||||||||
 x6 |] %17
w: |
w: |
w: |
V:3
 [B,,F,]>[B,,F,] | [B,,B,]>[B,,A,] [B,,B,]>[B,,A,] [B,,B,]2 [D,B,]>[D,B,] | %2
 [E,B,]>[E,B,] [E,B,]>[E,B,] [E,B,]2 [C,C]>[C,D] | [F,C]2 [F,B,]2 [F,A,]2 [F,A,]2 | %4
 [B,,B,]6 [B,,F,]>[B,,F,] | [B,,B,]>[B,,B,] [B,,B,]>[B,,B,] [B,,B,]2 [D,B,]>[D,B,] | %6
 [E,B,]>[E,B,] [E,B,]>[E,B,] [E,B,]2 [C,C]>[C,C] | [F,C]2 [F,A,]2 [F,B,]2 [F,C]2 | [B,,B,]6 z2 || %9
 [B,,B,]2 [B,,F,]>[B,,F,] [B,,B,]2 [B,,B,]2 | [B,,B,]>[B,,B,] [B,,F,]>[B,,F,] [B,,B,]2 [B,,B,]2 | %11
 [F,F]2 D2 B,2 F,2 | [D,B,]2 [B,,B,]2 [F,A,]2 [B,,F,]>[B,,F,] | %13
 [B,,B,]>[B,,B,] [B,,B,]>[B,,B,] [B,,B,]2 [D,B,]>[D,B,] | %14
 [E,G,]>[F,D] [E,C]>[D,=B,] [C,C]2 [D,F]>[E,E] | [F,D]>[F,B,] [G,B,]>[G,B,] [F,B,]2 [F,A,]2 | %16
 [B,,B,]6 |] %17
V:4
 x2 | x8 | x8 | x8 | x8 | x8 | x8 | x8 | x8 || x8 | x8 | x2 D2 B,2 F,2 | x8 | x8 | x8 | x8 | x6 |] %17

